X: 39783
T: That's More Of It
R: jig
M: 6/8
K: Gmajor
G2G BAG|FGA cBc|d2B c2A|B2G AFD|
G2G BAG|FGA cBc|dge f2d|1 cAA d3:|2 cAA d2g||
f2d cAA|cde a2g|fgf ded|cBc A2g|f2d cAA|
cde a2g|1 fed cAF|GAG G2g:|2 fef d2A|ABG FGA||

